client/src/assets/images/icon-contact-hc-gray.svg

<svg fill="none" height="92" viewBox="0 0 92 92" width="92" xmlns="http://www.w3.org/2000/svg"><path d="m60.4748 60.5356-8.5893-4.4276c-1.1955-.6198-2.7008-.3099-3.542.7527l-3.1436 4.0291c-3.0549-1.6382-5.4015-3.2321-8.1023-5.9329-2.8779-2.8779-4.4275-5.2687-6.0214-8.2352l3.9847-3.0992c1.0627-.8413 1.4169-2.3466.7527-3.542l-4.3832-8.5451c-.797-1.5054-2.7008-1.9924-4.0733-1.0626l-5.4901 3.6305c-1.2397.8413-1.9481 2.3023-1.8596 3.8077.0886 1.5496.31 3.4977.6642 4.8702 1.5939 6.11 5.4015 12.4413 10.7588 17.7986 5.3573 5.4016 11.6886 9.2092 17.7986 10.8031 1.3725.3542 3.3206.5313 4.9145.6642 1.5496.0885 3.0107-.6642 3.8519-1.9481l3.542-5.5344c.9298-1.4168.3985-3.2764-1.0626-4.029z" stroke="#808080" stroke-width="1.5"/><g fill="#808080"><path d="m42.4611 34.4444c0-7.7713 6.3231-14.0944 14.0944-14.0944 7.7714 0 14.0945 6.3231 14.0945 14.0944 0 7.7714-6.3231 14.0945-14.0945 14.0945-7.7713 0-14.0944-6.3231-14.0944-14.0945zm2.1889 0c0 6.5651 5.3405 11.9056 11.9055 11.9056 6.5651 0 11.9056-5.3405 11.9056-11.9056 0-6.565-5.3405-11.9055-11.9056-11.9055-6.565 0-11.9055 5.3405-11.9055 11.9055z" stroke="#808080" stroke-width=".7"/><path d="m57 40.2222h-.8889c-.5523 0-1 .4477-1 1v.8889c0 .5522.4477 1 1 1h.8889c.5523 0 1-.4478 1-1v-.8889c0-.5523-.4477-1-1-1z"/><path d="m58 35.8889v-8.6666c0-.7978-.6467-1.4445-1.4445-1.4445-.7977 0-1.4444.6467-1.4444 1.4445v8.6666c0 .7978.6467 1.4445 1.4444 1.4445.7978 0 1.4445-.6467 1.4445-1.4445z"/></g></svg>

<svg width="92" height="92" viewBox="0 0 92 92" fill="none" xmlns="http://www.w3.org/2000/svg">
<path d="M60.4748 60.5356L51.8855 56.108C50.69 55.4882 49.1847 55.7981 48.3435 56.8607L45.1999 60.8898C42.145 59.2516 39.7984 57.6577 37.0976 54.9569C34.2197 52.079 32.6701 49.6882 31.0762 46.7217L35.0609 43.6225C36.1236 42.7812 36.4778 41.2759 35.8136 40.0805L31.4304 31.5354C30.6334 30.03 28.7296 29.543 27.3571 30.4728L21.867 34.1033C20.6273 34.9446 19.9189 36.4056 20.0074 37.911C20.096 39.4606 20.3174 41.4087 20.6716 42.7812C22.2655 48.8912 26.0731 55.2225 31.4304 60.5798C36.7877 65.9814 43.119 69.789 49.229 71.3829C50.6015 71.7371 52.5496 71.9142 54.1435 72.0471C55.6931 72.1356 57.1542 71.3829 57.9954 70.099L61.5374 64.5646C62.4672 63.1478 61.9359 61.2882 60.4748 60.5356Z" stroke="#808080" stroke-width="1.5"/>
<path d="M42.4611 34.4444C42.4611 26.6731 48.7842 20.35 56.5555 20.35C64.3269 20.35 70.65 26.6731 70.65 34.4444C70.65 42.2158 64.3269 48.5389 56.5555 48.5389C48.7842 48.5389 42.4611 42.2158 42.4611 34.4444ZM44.65 34.4444C44.65 41.0095 49.9905 46.35 56.5555 46.35C63.1206 46.35 68.4611 41.0095 68.4611 34.4444C68.4611 27.8794 63.1206 22.5389 56.5555 22.5389C49.9905 22.5389 44.65 27.8794 44.65 34.4444Z" fill="#808080" stroke="#808080" stroke-width="0.7"/>
<path d="M57 40.2222H56.1111C55.5588 40.2222 55.1111 40.6699 55.1111 41.2222V42.1111C55.1111 42.6633 55.5588 43.1111 56.1111 43.1111H57C57.5523 43.1111 58 42.6633 58 42.1111V41.2222C58 40.6699 57.5523 40.2222 57 40.2222Z" fill="#808080"/>
<path d="M58 35.8889V27.2223C58 26.4245 57.3533 25.7778 56.5555 25.7778C55.7578 25.7778 55.1111 26.4245 55.1111 27.2223V35.8889C55.1111 36.6867 55.7578 37.3334 56.5555 37.3334C57.3533 37.3334 58 36.6867 58 35.8889Z" fill="#808080"/>
</svg>
